assets/images/bottom_navigation_bar/notification_off.svg

<svg width="25" height="24" viewBox="0 0 25 24" fill="none" xmlns="http://www.w3.org/2000/svg">
<path d="M19.8399 14.49L18.8399 12.83C18.6299 12.46 18.4399 11.76 18.4399 11.35V8.82C18.4399 6.47 17.0599 4.44 15.0699 3.49C14.5499 2.57 13.5899 2 12.4899 2C11.3999 2 10.4199 2.59 9.89994 3.52C7.94994 4.49 6.59994 6.5 6.59994 8.82V11.35C6.59994 11.76 6.40994 12.46 6.19994 12.82L5.18994 14.49C4.78994 15.16 4.69994 15.9 4.94994 16.58C5.18994 17.25 5.75994 17.77 6.49994 18.02C8.43994 18.68 10.4799 19 12.5199 19C14.5599 19 16.5999 18.68 18.5399 18.03C19.2399 17.8 19.7799 17.27 20.0399 16.58C20.2999 15.89 20.2299 15.13 19.8399 14.49Z" fill="#370C0F"/>
<path d="M15.3301 20.01C14.9101 21.17 13.8001 22 12.5001 22C11.7101 22 10.9301 21.68 10.3801 21.11C10.0601 20.81 9.82005 20.41 9.68005 20C9.81005 20.02 9.94005 20.03 10.0801 20.05C10.3101 20.08 10.5501 20.11 10.7901 20.13C11.3601 20.18 11.9401 20.21 12.5201 20.21C13.0901 20.21 13.6601 20.18 14.2201 20.13C14.4301 20.11 14.6401 20.1 14.8401 20.07C15.0001 20.05 15.1601 20.03 15.3301 20.01Z" fill="#370C0F"/>
</svg>

<svg xmlns="http://www.w3.org/2000/svg" width="25" height="24" fill="none"><path fill="#370C0F" d="m19.84 14.49-1-1.66c-.21-.37-.4-1.07-.4-1.48V8.82a5.91 5.91 0 0 0-3.37-5.33A2.926 2.926 0 0 0 12.49 2c-1.09 0-2.07.59-2.59 1.52-1.95.97-3.3 2.98-3.3 5.3v2.53c0 .41-.19 1.11-.4 1.47l-1.01 1.67c-.4.67-.49 1.41-.24 2.09.24.67.81 1.19 1.55 1.44 1.94.66 3.98.98 6.02.98 2.04 0 4.08-.32 6.02-.97.7-.23 1.24-.76 1.5-1.45s.19-1.45-.2-2.09ZM15.33 20.01A3.014 3.014 0 0 1 12.5 22c-.79 0-1.57-.32-2.12-.89-.32-.3-.56-.7-.7-1.11.13.02.26.03.4.05.23.03.47.06.71.08.57.05 1.15.08 1.73.08.57 0 1.14-.03 1.7-.08.21-.02.42-.03.62-.06l.49-.06Z"/></svg>
